X: 100294
M: C|
L: 1/8
K: C
uG !segno!|\
E<G(c>e) (d>c)A>a | (3gfe (g>e) d<cc :|
uf |\
e<g(g>e) (a>e)g>c | (.e>.c) (g>e) (.a>.d)(d>f) |\
e<g(g>e) (a>e)g>e | (f/e/d/c/) (B>g) e<c c>G |
(c/d/e/f/) (g>e) (a>e) (g>c) | (3edc (3gfe (.a>.d)-(d>f) |\
(3efg (3fga (3def (3efg | (3agf (3edc (3fed "_Segue Reel."(3cBA "^D.C."!segno!|]


